X:95
T: Die dienende Schwester
N: Q0075x
O: Mitteleuropa, Deutschland / UdSSR, Ostpreussen
R: Ballade, Adelige als Dienstmagd, Tod; Kinder - Spiel, Tanz
M: 3/4
L: 1/8
K: F
AAA | A3EGG | G3
GGG | G3DFF | F3
AAA | d3cBA | c3
BAG | c3BAG | F3

